static/images/submitBtn.svg

<svg width="24" height="23" viewBox="0 0 24 23" fill="none" xmlns="http://www.w3.org/2000/svg">
<path d="M19.8019 7.04528L8.80715 1.56578C1.40415 -2.10542 -1.62105 0.902446 2.08045 8.25393L3.71642 11.498L2.08041 14.7421C-1.62109 22.0936 1.41323 25.1105 8.80708 21.4302L19.8019 15.9688C24.7281 13.5062 24.7373 9.4988 19.8019 7.04528ZM15.1773 12.2249L8.21301 12.2431C7.93883 12.2431 7.7012 12.1341 7.52755 11.9614C7.3539 11.7888 7.24423 11.5525 7.24423 11.2799C7.24423 10.7529 7.68292 10.3167 8.21301 10.3167L15.1773 10.2985C15.7074 10.2985 16.1461 10.7347 16.1461 11.2617C16.1461 11.7888 15.7074 12.2249 15.1773 12.2249Z" />
</svg>

<svg xmlns="http://www.w3.org/2000/svg" width="24" height="23" fill="none"><path d="M19.802 7.045 8.807 1.565C1.404-2.104-1.62.903 2.08 8.255l1.636 3.244-1.636 3.244c-3.701 7.352-.667 10.368 6.727 6.688l10.995-5.461c4.926-2.463 4.935-6.47 0-8.924Zm-4.625 5.18-6.964.018a.961.961 0 0 1-.969-.963c0-.527.439-.963.969-.963l6.964-.018c.53 0 .97.436.97.963a.972.972 0 0 1-.97.963Z"/></svg>
